icons/dental_hygiene_fill.svg

<svg width="48" height="48" viewBox="0 0 48 48" fill="none" xmlns="http://www.w3.org/2000/svg">
<path fill-rule="evenodd" clip-rule="evenodd" d="M24 36L27.9705 8.65846C28.0261 8.32969 28.0029 7.99388 27.9024 7.67403C27.802 7.35418 27.6266 7.05786 27.3884 6.80537C27.1502 6.55287 26.8548 6.35018 26.5223 6.21117C26.1899 6.07216 25.8284 6.00013 25.4625 6H8.53922C8.17317 5.99991 7.81143 6.07178 7.47881 6.21069C7.14618 6.3496 6.85054 6.55226 6.61215 6.80478C6.37376 7.0573 6.19826 7.3537 6.09769 7.67366C5.99712 7.99362 5.97386 8.32956 6.0295 8.65846L10 36V38.5C10 39.4154 10.3487 40.3011 10.9816 40.9603C11.6157 41.6209 12.4848 42 13.4 42H20.6C21.5152 42 22.3843 41.6209 23.0184 40.9603C23.6513 40.3011 24 39.4154 24 38.5V36ZM18.0917 15.3115C18.0917 14.7592 17.644 14.3115 17.0917 14.3115C16.5394 14.3115 16.0917 14.7592 16.0917 15.3115V18.8447H12.4761C11.9238 18.8447 11.4761 19.2924 11.4761 19.8447C11.4761 20.397 11.9238 20.8447 12.4761 20.8447H16.0917V24.3782C16.0917 24.9305 16.5394 25.3782 17.0917 25.3782C17.644 25.3782 18.0917 24.9305 18.0917 24.3782V20.8447H21.7069C22.2592 20.8447 22.7069 20.397 22.7069 19.8447C22.7069 19.2924 22.2592 18.8447 21.7069 18.8447H18.0917V15.3115ZM21.5757 39.5752C21.843 39.2968 22 38.9107 22 38.5V37H12V38.5C12 38.9107 12.157 39.2968 12.4243 39.5752C12.6903 39.8523 13.0422 40 13.4 40H20.6C20.9578 40 21.3097 39.8523 21.5757 39.5752Z" fill="black"/>
<path d="M42 7C42 6.44772 41.5523 6 41 6C40.4477 6 40 6.44772 40 7H34V9H40V11H34V13H40V15H34V17H40V18.9919L36.2428 23.3468C36.0862 23.5283 36 23.7602 36 24V41C36 41.5523 36.4477 42 37 42C37.5523 42 38 41.5523 38 41V24.3718L41.7572 20.0169C41.9138 19.8353 42 19.6035 42 19.3636V7Z" fill="black"/>
</svg>

<svg
  xmlns="http://www.w3.org/2000/svg"
  width="24"
  height="24"
  viewBox="0 0 24 24"
  fill="none"
  stroke="currentColor"
  stroke-width="2"
  stroke-linecap="round"
  stroke-linejoin="round"
>
  <path
    fill-rule="evenodd"
    d="m24 36 3.97-27.342a2.1 2.1 0 0 0-.068-.984 2.25 2.25 0 0 0-.514-.869 2.5 2.5 0 0 0-.866-.594A2.8 2.8 0 0 0 25.462 6H8.54c-.366 0-.728.072-1.06.21a2.5 2.5 0 0 0-.867.595 2.25 2.25 0 0 0-.514.869c-.1.32-.124.656-.069.984L10 36v2.5c0 .915.349 1.801.982 2.46A3.35 3.35 0 0 0 13.4 42h7.2c.915 0 1.784-.38 2.418-1.04.633-.659.982-1.545.982-2.46zm-5.908-20.688a1 1 0 1 0-2 0v3.533h-3.616a1 1 0 1 0 0 2h3.616v3.533a1 1 0 1 0 2 0v-3.533h3.615a1 1 0 1 0 0-2h-3.615zm3.484 24.263c.267-.278.424-.664.424-1.075V37H12v1.5c0 .41.157.797.424 1.075.266.277.618.425.976.425h7.2c.358 0 .71-.148.976-.425"
    clip-rule="evenodd"
  />
  <path d="M42 7a1 1 0 1 0-2 0h-6v2h6v2h-6v2h6v2h-6v2h6v1.992l-3.757 4.355A1 1 0 0 0 36 24v17a1 1 0 1 0 2 0V24.372l3.757-4.355a1 1 0 0 0 .243-.653z" />
</svg>
